packages/radix-icons/twoTone/15/double-arrow-right.svg

<svg width="15" height="15" fill="none" xmlns="http://www.w3.org/2000/svg">
  <path
    fill-rule="evenodd"
    clip-rule="evenodd"
    d="M1.79289 10.7929C1.40237 11.1834 1.40237 11.8166 1.79289 12.2071C2.18342 12.5976 2.81658 12.5976 3.20711 12.2071L7.20711 8.20711C7.59763 7.81658 7.59763 7.18342 7.20711 6.79289L3.20711 2.79289C2.81658 2.40237 2.18342 2.40237 1.79289 2.79289C1.40237 3.18342 1.40237 3.81658 1.79289 4.20711L5.08579 7.5L1.79289 10.7929ZM7.79289 10.7929C7.40237 11.1834 7.40237 11.8166 7.79289 12.2071C8.18342 12.5976 8.81658 12.5976 9.20711 12.2071L13.2071 8.20711C13.5976 7.81658 13.5976 7.18342 13.2071 6.79289L9.20711 2.79289C8.81658 2.40237 8.18342 2.40237 7.79289 2.79289C7.40237 3.18342 7.40237 3.81658 7.79289 4.20711L11.0858 7.5L7.79289 10.7929Z"
    fill="currentColor"
    opacity=".2"
  />
  <path
    fill-rule="evenodd"
    clip-rule="evenodd"
    d="M2.14645 11.1464C1.95118 11.3417 1.95118 11.6583 2.14645 11.8536C2.34171 12.0488 2.65829 12.0488 2.85355 11.8536L6.85355 7.85355C7.04882 7.65829 7.04882 7.34171 6.85355 7.14645L2.85355 3.14645C2.65829 2.95118 2.34171 2.95118 2.14645 3.14645C1.95118 3.34171 1.95118 3.65829 2.14645 3.85355L5.79289 7.5L2.14645 11.1464ZM8.14645 11.1464C7.95118 11.3417 7.95118 11.6583 8.14645 11.8536C8.34171 12.0488 8.65829 12.0488 8.85355 11.8536L12.8536 7.85355C13.0488 7.65829 13.0488 7.34171 12.8536 7.14645L8.85355 3.14645C8.65829 2.95118 8.34171 2.95118 8.14645 3.14645C7.95118 3.34171 7.95118 3.65829 8.14645 3.85355L11.7929 7.5L8.14645 11.1464Z"
    fill="currentColor"
  />
</svg>

<svg width="15" height="15" fill="none" xmlns="http://www.w3.org/2000/svg">
  <path
    fill-rule="evenodd"
    clip-rule="evenodd"
    d="M1.793 10.793a1 1 0 101.414 1.414l4-4a1 1 0 000-1.414l-4-4a1 1 0 00-1.414 1.414L5.086 7.5l-3.293 3.293zm6 0a1 1 0 101.414 1.414l4-4a1 1 0 000-1.414l-4-4a1 1 0 00-1.414 1.414L11.086 7.5l-3.293 3.293z"
    fill="currentColor"
    opacity=".2"
  />
  <path
    fill-rule="evenodd"
    clip-rule="evenodd"
    d="M2.146 11.146a.5.5 0 00.708.708l4-4a.5.5 0 000-.708l-4-4a.5.5 0 10-.708.708L5.793 7.5l-3.647 3.646zm6 0a.5.5 0 00.708.708l4-4a.5.5 0 000-.708l-4-4a.5.5 0 10-.708.708L11.793 7.5l-3.647 3.646z"
    fill="currentColor"
  />
</svg>
